X:1
T:Title
%%score { ( 1 3 ) | 2 }
L:1/8
M:6/8
K:C
V:1 treble nm="Grand Piano"
V:3 treble 
V:2 bass 
V:1
 z3 z2[Q:1/4=84] [EG] | [EG][CE][DF] [EG][FA][DB] | [Ec]3 [EG]2 G | BAG FEF | %4
[M:5/8] [_EA]3 [=EG]2 |[M:1/8] [EG] |[M:3/4] [EG][CE] [DF][EG] [FA][DB] | [Ec]3 [Ge]2 [Ge] | %8
 [Gd][Gc] [GB][EGc] [DGB][C^FA] |[M:5/8] G-G- G3 |[M:1/8] G |[M:3/4] BB BB cd | [Ec]3 [EG]2 [Gc] | %13
 dd dd cd |[M:5/8] e-e- e3 |[M:1/8] e |[M:3/4] ee ee fe |[M:7/8] d2 A B3 A |[M:3/4] Gc ef ed | %19
[M:5/8] [Ec]-[Ec]- [Ec]3 |] %20
V:2
 z3 z2 [C,C] | [C,C][C,G,][C,G,] [C,C][C,C][C,G,] | [C,G,]3 [C,C]2 [E,C] | %3
 [G,DF][G,CF][G,B,F] [G,B,D][G,_B,^C][K:bass][G,=B,D] |[M:5/8] [C,C]-[C,C]- [C,C]3 |[M:1/8] [C,C] | %6
[M:3/4] [C,C][C,G,] [C,G,][C,C] [C,C][C,G,] | [C,G,]3 [C,C]2 [C,C] | [D,B,][D,A,] [D,G,]D, D,D, | %9
[M:5/8] [G,B,]-[G,B,]- [G,B,]3 |[M:1/8] [G,B,] | %11
[M:3/4][K:treble] [G,DF][G,DF] [G,DF][G,DF] [G,CE][G,B,F] | [C,C]3 [C,C]2 [E,C] | %13
 [G,B,G][G,B,G] [G,B,G][G,B,G] [G,A,G][G,B,G] |[M:5/8] [CG]-[CG]- [CG]3 |[M:1/8] [CG] | %16
[M:3/4] [A,^CG][A,CG] [A,CG][A,CG] [A,CG][A,CG] |[M:7/8][K:bass] D,2 F, [^F,C_E]3 [F,CE] | %18
[M:3/4] [G,CE][K:treble][G,CE] [G,CG][G,B,A] [G,B,G][G,B,F] |[M:5/8][K:bass] [C,C]-[C,C]- [C,C]3 |] %20
V:3
 x6 | x6 | x6 | x6 |[M:5/8] x5 |[M:1/8] x |[M:3/4] x6 | x6 | x6 |[M:5/8] x5 |[M:1/8] x | %11
[M:3/4] x6 | x6 | x6 |[M:5/8] x5 |[M:1/8] x |[M:3/4] x6 |[M:7/8] [DF]3 z z z2 |[M:3/4] x6 | %19
[M:5/8] x5 |] %20

